images/logo4.svg

<svg width="86" height="42" viewBox="0 0 86 42" fill="none" xmlns="http://www.w3.org/2000/svg">
<path d="M13.7461 13.1028H13.7432C11.3452 13.1028 9.40118 14.8304 9.40118 16.9615V16.964C9.40118 19.0951 11.3452 20.8227 13.7432 20.8227H13.7461C16.1441 20.8227 18.0881 19.0951 18.0881 16.964V16.9615C18.0881 14.8304 16.1441 13.1028 13.7461 13.1028Z" fill="#2196F3"/>
<path d="M45.7949 11.8693C45.7881 8.90929 44.4622 6.07223 42.1073 3.97895C39.7524 1.88568 36.5603 0.706672 33.2296 0.699951V0.699951C29.898 0.705328 26.7044 1.88374 24.3483 3.97716C21.9922 6.07058 20.6654 8.90841 20.6586 11.8693V28.1921C20.6586 28.1921 45.7921 25.7044 45.7949 11.8718V11.8693Z" fill="#2196F3"/>
<path d="M0.599915 33.5495C0.605956 35.6091 1.52906 37.5828 3.16753 39.0394C4.80599 40.496 7.02659 41.317 9.3441 41.3231C11.6611 41.317 13.8813 40.4963 15.5197 39.0403C17.158 37.5843 18.0815 35.6112 18.0883 33.552V22.1943C18.0883 22.1943 0.599915 23.9266 0.599915 33.5495ZM9.3441 35.5844C8.89122 35.5844 8.44851 35.4651 8.07195 35.2415C7.69539 35.0179 7.4019 34.7001 7.22859 34.3282C7.05528 33.9564 7.00994 33.5472 7.09829 33.1525C7.18664 32.7577 7.40473 32.3951 7.72496 32.1105C8.0452 31.8259 8.4532 31.6321 8.89738 31.5536C9.34155 31.4751 9.80196 31.5154 10.2204 31.6694C10.6388 31.8234 10.9964 32.0843 11.248 32.4189C11.4996 32.7535 11.6339 33.147 11.6339 33.5495C11.635 33.8173 11.5766 34.0828 11.4621 34.3306C11.3475 34.5783 11.179 34.8036 10.9663 34.9933C10.7535 35.1831 10.5007 35.3337 10.2224 35.4364C9.94398 35.5392 9.64552 35.5921 9.3441 35.5921V35.5844Z" fill="#2196F3"/>
<path d="M27.0176 34.4637H25.3301V36.2069H24.4512V31.9413H27.2285V32.6532H25.3301V33.7548H27.0176V34.4637ZM31.2422 34.1708C31.2422 34.5907 31.168 34.9589 31.0195 35.2753C30.8711 35.5917 30.6582 35.8358 30.3809 36.0077C30.1055 36.1796 29.7891 36.2655 29.4316 36.2655C29.0781 36.2655 28.7627 36.1805 28.4854 36.0106C28.208 35.8407 27.9932 35.5985 27.8408 35.2841C27.6885 34.9677 27.6113 34.6044 27.6094 34.1942V33.9833C27.6094 33.5634 27.6846 33.1942 27.835 32.8759C27.9873 32.5555 28.2012 32.3104 28.4766 32.1405C28.7539 31.9686 29.0703 31.8827 29.4258 31.8827C29.7812 31.8827 30.0967 31.9686 30.3721 32.1405C30.6494 32.3104 30.8633 32.5555 31.0137 32.8759C31.166 33.1942 31.2422 33.5624 31.2422 33.9803V34.1708ZM30.3516 33.9774C30.3516 33.5302 30.2715 33.1903 30.1113 32.9579C29.9512 32.7255 29.7227 32.6093 29.4258 32.6093C29.1309 32.6093 28.9033 32.7245 28.7432 32.955C28.583 33.1835 28.502 33.5194 28.5 33.9628V34.1708C28.5 34.6063 28.5801 34.9442 28.7402 35.1844C28.9004 35.4247 29.1309 35.5448 29.4316 35.5448C29.7266 35.5448 29.9531 35.4296 30.1113 35.1991C30.2695 34.9667 30.3496 34.6288 30.3516 34.1854V33.9774ZM34.0928 35.0878C34.0928 34.9218 34.0342 34.7948 33.917 34.7069C33.7998 34.6171 33.5889 34.5233 33.2842 34.4257C32.9795 34.326 32.7383 34.2284 32.5605 34.1327C32.0762 33.871 31.834 33.5184 31.834 33.0751C31.834 32.8446 31.8984 32.6395 32.0273 32.4598C32.1582 32.2782 32.3447 32.1366 32.5869 32.035C32.8311 31.9335 33.1045 31.8827 33.4072 31.8827C33.7119 31.8827 33.9834 31.9384 34.2217 32.0497C34.46 32.1591 34.6445 32.3143 34.7754 32.5155C34.9082 32.7167 34.9746 32.9452 34.9746 33.201H34.0957C34.0957 33.0057 34.0342 32.8544 33.9111 32.7469C33.7881 32.6376 33.6152 32.5829 33.3926 32.5829C33.1777 32.5829 33.0107 32.6288 32.8916 32.7206C32.7725 32.8104 32.7129 32.9296 32.7129 33.078C32.7129 33.2167 32.7822 33.3329 32.9209 33.4266C33.0615 33.5204 33.2676 33.6083 33.5391 33.6903C34.0391 33.8407 34.4033 34.0272 34.6318 34.2499C34.8604 34.4725 34.9746 34.7499 34.9746 35.0819C34.9746 35.451 34.835 35.7411 34.5557 35.952C34.2764 36.161 33.9004 36.2655 33.4277 36.2655C33.0996 36.2655 32.8008 36.2059 32.5312 36.0868C32.2617 35.9657 32.0557 35.8007 31.9131 35.5917C31.7725 35.3827 31.7021 35.1405 31.7021 34.8651H32.584C32.584 35.3358 32.8652 35.5712 33.4277 35.5712C33.6367 35.5712 33.7998 35.5292 33.917 35.4452C34.0342 35.3593 34.0928 35.2401 34.0928 35.0878ZM38.7832 32.6532H37.4766V36.2069H36.5977V32.6532H35.3086V31.9413H38.7832V32.6532ZM41.8535 34.3583H40.166V35.5009H42.1465V36.2069H39.2871V31.9413H42.1406V32.6532H40.166V33.6698H41.8535V34.3583ZM44.2412 34.6454H43.541V36.2069H42.6621V31.9413H44.2471C44.751 31.9413 45.1396 32.0536 45.4131 32.2782C45.6865 32.5028 45.8232 32.8202 45.8232 33.2303C45.8232 33.5214 45.7598 33.7645 45.6328 33.9598C45.5078 34.1532 45.3174 34.3075 45.0615 34.4227L45.9844 36.1659V36.2069H45.041L44.2412 34.6454ZM43.541 33.9335H44.25C44.4707 33.9335 44.6416 33.8778 44.7627 33.7665C44.8838 33.6532 44.9443 33.4979 44.9443 33.3007C44.9443 33.0995 44.8867 32.9413 44.7715 32.826C44.6582 32.7108 44.4834 32.6532 44.2471 32.6532H43.541V33.9335ZM48.8672 34.704V36.2069H47.9883V31.9413H49.6523C49.9727 31.9413 50.2539 31.9999 50.4961 32.1171C50.7402 32.2343 50.9277 32.4012 51.0586 32.618C51.1895 32.8329 51.2549 33.078 51.2549 33.3534C51.2549 33.7714 51.1113 34.1014 50.8242 34.3436C50.5391 34.5839 50.1436 34.704 49.6377 34.704H48.8672ZM48.8672 33.9921H49.6523C49.8848 33.9921 50.0615 33.9374 50.1826 33.828C50.3057 33.7186 50.3672 33.5624 50.3672 33.3593C50.3672 33.1503 50.3057 32.9813 50.1826 32.8524C50.0596 32.7235 49.8896 32.6571 49.6729 32.6532H48.8672V33.9921ZM54.4277 34.3583H52.7402V35.5009H54.7207V36.2069H51.8613V31.9413H54.7148V32.6532H52.7402V33.6698H54.4277V34.3583ZM58.5059 32.6532H57.1992V36.2069H56.3203V32.6532H55.0312V31.9413H58.5059V32.6532ZM61.5762 34.3583H59.8887V35.5009H61.8691V36.2069H59.0098V31.9413H61.8633V32.6532H59.8887V33.6698H61.5762V34.3583ZM63.9639 34.6454H63.2637V36.2069H62.3848V31.9413H63.9697C64.4736 31.9413 64.8623 32.0536 65.1357 32.2782C65.4092 32.5028 65.5459 32.8202 65.5459 33.2303C65.5459 33.5214 65.4824 33.7645 65.3555 33.9598C65.2305 34.1532 65.04 34.3075 64.7842 34.4227L65.707 36.1659V36.2069H64.7637L63.9639 34.6454ZM63.2637 33.9335H63.9727C64.1934 33.9335 64.3643 33.8778 64.4854 33.7665C64.6064 33.6532 64.667 33.4979 64.667 33.3007C64.667 33.0995 64.6094 32.9413 64.4941 32.826C64.3809 32.7108 64.2061 32.6532 63.9697 32.6532H63.2637V33.9335ZM68.4287 35.0878C68.4287 34.9218 68.3701 34.7948 68.2529 34.7069C68.1357 34.6171 67.9248 34.5233 67.6201 34.4257C67.3154 34.326 67.0742 34.2284 66.8965 34.1327C66.4121 33.871 66.1699 33.5184 66.1699 33.0751C66.1699 32.8446 66.2344 32.6395 66.3633 32.4598C66.4941 32.2782 66.6807 32.1366 66.9229 32.035C67.167 31.9335 67.4404 31.8827 67.7432 31.8827C68.0479 31.8827 68.3193 31.9384 68.5576 32.0497C68.7959 32.1591 68.9805 32.3143 69.1113 32.5155C69.2441 32.7167 69.3105 32.9452 69.3105 33.201H68.4316C68.4316 33.0057 68.3701 32.8544 68.2471 32.7469C68.124 32.6376 67.9512 32.5829 67.7285 32.5829C67.5137 32.5829 67.3467 32.6288 67.2275 32.7206C67.1084 32.8104 67.0488 32.9296 67.0488 33.078C67.0488 33.2167 67.1182 33.3329 67.2568 33.4266C67.3975 33.5204 67.6035 33.6083 67.875 33.6903C68.375 33.8407 68.7393 34.0272 68.9678 34.2499C69.1963 34.4725 69.3105 34.7499 69.3105 35.0819C69.3105 35.451 69.1709 35.7411 68.8916 35.952C68.6123 36.161 68.2363 36.2655 67.7637 36.2655C67.4355 36.2655 67.1367 36.2059 66.8672 36.0868C66.5977 35.9657 66.3916 35.8007 66.249 35.5917C66.1084 35.3827 66.0381 35.1405 66.0381 34.8651H66.9199C66.9199 35.3358 67.2012 35.5712 67.7637 35.5712C67.9727 35.5712 68.1357 35.5292 68.2529 35.4452C68.3701 35.3593 68.4287 35.2401 68.4287 35.0878Z" fill="#2196F3"/>
</svg>

<svg width="86" height="42" fill="none" xmlns="http://www.w3.org/2000/svg"><path d="M13.746 13.103h-.003c-2.398 0-4.342 1.727-4.342 3.859v.002c0 2.131 1.944 3.859 4.342 3.859h.003c2.398 0 4.342-1.728 4.342-3.859v-.002c0-2.132-1.944-3.86-4.342-3.86zM45.795 11.87c-.007-2.96-1.333-5.798-3.688-7.891C39.752 1.886 36.56.707 33.23.7c-3.332.005-6.526 1.184-8.882 3.277-2.356 2.094-3.683 4.931-3.69 7.892v16.323s25.134-2.488 25.137-16.32v-.003zM.6 33.55c.006 2.06.93 4.033 2.568 5.49 1.638 1.456 3.859 2.277 6.176 2.283 2.317-.006 4.537-.827 6.176-2.283 1.638-1.456 2.561-3.429 2.568-5.488V22.194S.6 23.927.6 33.55zm8.744 2.034c-.453 0-.895-.119-1.272-.343a2.107 2.107 0 01-.843-.913 1.825 1.825 0 01-.13-1.175c.088-.395.306-.758.626-1.042a2.39 2.39 0 011.172-.557 2.558 2.558 0 011.323.115c.419.154.776.415 1.028.75s.386.728.386 1.13c.001.268-.057.534-.172.782a2.036 2.036 0 01-.496.662c-.212.19-.465.34-.744.443a2.54 2.54 0 01-.878.156v-.008zM27.018 34.464H25.33v1.743h-.879V31.94h2.777v.712H25.33v1.102h1.688v.709zm4.224-.293c0 .42-.074.788-.223 1.104-.148.317-.36.56-.638.733a1.755 1.755 0 01-.95.258c-.353 0-.668-.085-.946-.255a1.695 1.695 0 01-.644-.727 2.511 2.511 0 01-.232-1.09v-.21c0-.42.076-.79.226-1.108.152-.32.366-.566.642-.735.277-.172.593-.258.949-.258.355 0 .67.086.946.258.277.17.491.415.642.735.152.318.228.686.228 1.104v.19zm-.89-.194c0-.447-.08-.787-.24-1.02a.783.783 0 00-.686-.348.782.782 0 00-.683.346c-.16.229-.241.564-.243 1.008v.208c0 .435.08.773.24 1.013.16.24.39.36.692.36a.775.775 0 00.68-.345c.158-.232.238-.57.24-1.014v-.208zm3.74 1.11a.447.447 0 00-.175-.38c-.117-.09-.328-.184-.633-.281a4.575 4.575 0 01-.724-.293c-.484-.262-.726-.615-.726-1.058 0-.23.064-.436.193-.615.131-.182.318-.323.56-.425.244-.101.517-.152.82-.152.305 0 .576.055.815.167.238.11.422.264.553.466.133.2.2.43.2.685h-.88c0-.195-.06-.347-.184-.454-.123-.11-.296-.164-.518-.164-.215 0-.382.046-.501.138a.426.426 0 00-.18.357c0 .139.07.255.209.349.14.093.347.181.618.263.5.15.864.337 1.093.56.228.222.343.5.343.832 0 .369-.14.66-.42.87-.279.209-.655.314-1.127.314-.328 0-.627-.06-.897-.18a1.438 1.438 0 01-.618-.494 1.27 1.27 0 01-.21-.727h.881c0 .47.281.706.844.706.209 0 .372-.042.489-.126a.418.418 0 00.176-.357zm4.691-2.434h-1.306v3.554h-.88v-3.554H35.31v-.712h3.474v.712zm3.07 1.705h-1.687v1.143h1.98v.706h-2.859V31.94h2.854v.712h-1.975v1.017h1.688v.688zm2.388.287h-.7v1.562h-.879V31.94h1.585c.504 0 .893.113 1.166.337.274.225.41.542.41.952 0 .291-.063.535-.19.73a1.282 1.282 0 01-.572.463l.923 1.743v.04h-.943l-.8-1.56zm-.7-.712h.709c.22 0 .392-.055.513-.166a.607.607 0 00.181-.466c0-.202-.057-.36-.172-.475-.114-.115-.289-.173-.525-.173h-.706v1.28zm5.326.771v1.503h-.879V31.94h1.664c.32 0 .602.059.844.176.244.117.432.284.563.501.13.215.196.46.196.735 0 .418-.144.748-.43.99-.286.24-.681.361-1.187.361h-.77zm0-.712h.785c.233 0 .41-.055.53-.164.124-.11.185-.266.185-.469a.704.704 0 00-.184-.507c-.123-.128-.293-.195-.51-.199h-.806v1.34zm5.56.366H52.74v1.143h1.98v.706h-2.859V31.94h2.854v.712H52.74v1.017h1.688v.688zm4.079-1.705h-1.307v3.554h-.879v-3.554h-1.289v-.712h3.475v.712zm3.07 1.705H59.89v1.143h1.98v.706h-2.86V31.94h2.854v.712H59.89v1.017h1.687v.688zm2.388.287h-.7v1.562h-.88V31.94h1.586c.504 0 .892.113 1.166.337.273.225.41.542.41.952 0 .291-.064.535-.19.73a1.283 1.283 0 01-.572.463l.923 1.743v.04h-.943l-.8-1.56zm-.7-.712h.709c.22 0 .391-.055.512-.166a.607.607 0 00.182-.466c0-.202-.058-.36-.173-.475-.113-.115-.288-.173-.524-.173h-.706v1.28zm5.165 1.155a.447.447 0 00-.176-.381c-.117-.09-.328-.184-.633-.281a4.57 4.57 0 01-.724-.293c-.484-.262-.726-.615-.726-1.058 0-.23.064-.436.193-.615.131-.182.318-.323.56-.425.244-.101.517-.152.82-.152.305 0 .576.055.815.167.238.11.422.264.553.466.133.2.2.43.2.685h-.88c0-.195-.06-.347-.184-.454-.123-.11-.296-.164-.519-.164-.214 0-.381.046-.5.138a.426.426 0 00-.18.357c0 .139.07.255.209.349.14.093.346.181.618.263.5.15.864.337 1.093.56.228.222.343.5.343.832 0 .369-.14.66-.42.87-.279.209-.655.314-1.127.314-.328 0-.627-.06-.897-.18a1.439 1.439 0 01-.618-.494 1.27 1.27 0 01-.21-.727h.88c0 .47.282.706.845.706.209 0 .372-.042.489-.126a.418.418 0 00.176-.357z" fill="#2196F3"/></svg>
